img/cases/arrow.svg

<svg width="30" height="31" viewBox="0 0 30 31" fill="none" xmlns="http://www.w3.org/2000/svg">
<path d="M17.2447 28.5356L15.7583 30.061C15.1289 30.7069 14.1111 30.7069 13.4885 30.061L0.472046 16.7101C-0.157349 16.0642 -0.157349 15.0198 0.472046 14.3807L13.4818 1.02984C14.1111 0.383935 15.1289 0.383935 15.7516 1.02984L17.238 2.55526C17.8741 3.20803 17.8607 4.27308 17.2112 4.91211L9.14965 12.7935H28.393C29.2836 12.7935 30 13.5287 30 14.4426V16.6414C30 17.5553 29.2836 18.2905 28.393 18.2905H9.14965L17.2179 26.1787C17.8741 26.8177 17.8875 27.8828 17.2447 28.5356Z" fill="white"/>
</svg>

<svg width="30" height="31" fill="none" xmlns="http://www.w3.org/2000/svg"><path d="M17.245 28.536l-1.487 1.525a1.572 1.572 0 01-2.27 0L.473 16.711a1.673 1.673 0 010-2.33L13.482 1.03a1.572 1.572 0 012.27 0l1.486 1.525a1.681 1.681 0 01-.027 2.357L9.15 12.793h19.243c.89 0 1.607.736 1.607 1.65v2.198c0 .914-.716 1.65-1.607 1.65H9.15l8.068 7.888a1.67 1.67 0 01.027 2.357z" fill="#fff"/></svg>
